!!!ONB: MCCC : ILB0165_03 : Extracted Monophonic Melody
!!!COM: Beethoven, Ludwig van
!!!OPR: Piano Sonata No.4
!!!OMV: 3
!!!SCT: Op.7
!!!ODT: 1796///
**kern
*thru
*staff1
*Ipiano
*>A
*clefG2
*k[b-e-a-]
*E-:
*M3/4
*MM132
=1
2b-
4g
=2
4e-
2g
=3
4ee-
4gg
8ff
8dd
=4
8ee-
8gg
4b-
4r
=5
8cc
8ee-
4b-
4r
=6
8a-
8b-
4g
4r
=7
4f
4a-
4g
=8
4f
4r
4r
=9
2b-
4g
=10
4e-
2g
=11
4ee-
4gg
8ff
8dd
=12
4ee-
4r
4r
=13
4r
4ff
8ee-
8cc
=14
4dd
4r
4r
=15
4r
4r
8eee-
8ccc
=16
8ddd
8fff
4ff
8eee-
8ccc
=17
8ddd
8fff
4ff
8eee-
8ccc
=18
8ddd
8fff
4ff
8eee-
8ccc
=19
8ddd
8fff
8eee-
8ddd
8ccc
8bb-
=20
8aa
8bb-
8ddd
8ff
8ccc
8ee-
=21
8bb-
8ff
8ee-
8dd
8cc
8b-
=22
8a
8b-
8dd
8f
8cc
8e-
=23
8b-
8f
8d
8B-
8F
8D
=24
2.r
=25
*>A
*M3/4
2b-
4g
=26
4e-
2g
=27
4ee-
4gg
8ff
8dd
=28
8ee-
8gg
4b-
4r
=29
8cc
8ee-
4b-
4r
=30
8a-
8b-
4g
4r
=31
4f
4a-
4g
=32
4f
4r
4r
=33
2b-
4g
=34
4e-
2g
=35
4ee-
4gg
8ff
8dd
=36
4ee-
4r
4r
=37
4r
4ff
8ee-
8cc
=38
4dd
4r
4r
=39
4r
4r
8eee-
8ccc
=40
8ddd
8fff
4ff
8eee-
8ccc
=41
8ddd
8fff
4ff
8eee-
8ccc
=42
8ddd
8fff
4ff
8eee-
8ccc
=43
8ddd
8fff
8eee-
8ddd
8ccc
8bb-
=44
8aa
8bb-
8ddd
8ff
8ccc
8ee-
=45
8bb-
8ff
8ee-
8dd
8cc
8b-
=46
8a
8b-
8dd
8f
8cc
8e-
=47
8b-
8f
8d
8B-
8F
8D
=48
2.r
=49
*>B
2.r
=50
2b-
4g
=51
4e
4g
4b-
=52
2dd-
4b-
=53
4g
4b-
4dd-
=54
2ee
4dd-
=55
4b-
4dd-
4ee
=56
4gg
4ff
4ee
=57
4ee
4ff
4ff
=58
4aa-
4gg
4ff
=59
4r
4ee
4ee
=60
4gg
4ff
4ee
=61
4r
4ff
4ff
=62
4aa-
4gg
4ff
=63
4ee-
4dd
4dd
=64
4ff
4ee-
4dd
=65
4cc
4b-
4a
=66
4b-
4cc
4a-
=67
2b-
4g
=68
4e-
2g
=69
4ee-
4gg
8ff
8dd
=70
8ee-
8gg
4b-
4r
=71
8cc
8ee-
4b-
4r
=72
8a-
8b-
4g
4r
=73
4f
4a-
4g
=74
4f
4r
4r
=75
2b-
4g-
=76
4e-
2g-
=77
4ee-
4gg-
8ff
8dd
=78
4ee-
4r
4r
=79
4r
4r
8ff-
8dd-
=80
4ee-
4r
8ff-
8dd-
=81
4ee-
4r
8ff-
8dd-
=82
4ee-
[2gg-
=83
4gg-]
[2ff-
=84
4ff-]
[2ee-
=85
2.ee-]
=86
4ee-
[2gg-
=87
4gg-]
[2ff-
=88
4ff-]
[2ee-
=89
4ee-]
[2dd-
=90
4dd-]
[2cc-
=91
4cc-]
[2b-
=92
4b-]
4a
4r
=93
2.r
=94
4r
4b-
4b-
=95
4b-
4b-
8aa-
8ff
=96
4gg
4b-
8ff
8dd
=97
4ee-
4b-
8aa-
8ff
=98
4gg
4b-
8ff
8dd
=99
4ee-
4ee-
8ccc
8aa-
=100
4bb-
4ee-
8aa-
8ff#
=101
4gg
4ee-
8ccc
8aa-
=102
4bb-
4ee-
8aa-
8ff#
=103
4gg
4ee-
8ddd-
8bb-
=104
8ccc
8eee-
8ddd
8ccc
8bb-
8aa-
=105
8gg
8bb-
8eee-
8gg
8ddd
8ff
=106
8eee-
8ee-
8dd
8cc
8b-
8a-
=107
8g
8b-
8ee-
8g
8dd
8f
=108
8ee-
8e-
8d
8c
8B-
8A-
=109
8G
8B-
8e-
8G
8d
8F
=110
4e-
4r
4r
=111
2.g
=112
2.a-
=113
2.b-
=114
4e-
4ee-
4ee-
=115
4dd-
4ee-
4b-
=116
4cc
4ee-
4a-
=117
4dd
4ff
4b-
=118
8ee-
8b-
8g
8e-
8B-
8G
=119
2.r
=120
*>B
2.r
=121
2b-
4g
=122
4e
4g
4b-
=123
2dd-
4b-
=124
4g
4b-
4dd-
=125
2ee
4dd-
=126
4b-
4dd-
4ee
=127
4gg
4ff
4ee
=128
4ee
4ff
4ff
=129
4aa-
4gg
4ff
=130
4r
4ee
4ee
=131
4gg
4ff
4ee
=132
4r
4ff
4ff
=133
4aa-
4gg
4ff
=134
4ee-
4dd
4dd
=135
4ff
4ee-
4dd
=136
4cc
4b-
4a
=137
4b-
4cc
4a-
=138
2b-
4g
=139
4e-
2g
=140
4ee-
4gg
8ff
8dd
=141
8ee-
8gg
4b-
4r
=142
8cc
8ee-
4b-
4r
=143
8a-
8b-
4g
4r
=144
4f
4a-
4g
=145
4f
4r
4r
=146
2b-
4g-
=147
4e-
2g-
=148
4ee-
4gg-
8ff
8dd
=149
4ee-
4r
4r
=150
4r
4r
8ff-
8dd-
=151
4ee-
4r
8ff-
8dd-
=152
4ee-
4r
8ff-
8dd-
=153
4ee-
[2gg-
=154
4gg-]
[2ff-
=155
4ff-]
[2ee-
=156
2.ee-]
=157
4ee-
[2gg-
=158
4gg-]
[2ff-
=159
4ff-]
[2ee-
=160
4ee-]
[2dd-
=161
4dd-]
[2cc-
=162
4cc-]
[2b-
=163
4b-]
4a
4r
=164
2.r
=165
4r
4b-
4b-
=166
4b-
4b-
8aa-
8ff
=167
4gg
4b-
8ff
8dd
=168
4ee-
4b-
8aa-
8ff
=169
4gg
4b-
8ff
8dd
=170
4ee-
4ee-
8ccc
8aa-
=171
4bb-
4ee-
8aa-
8ff#
=172
4gg
4ee-
8ccc
8aa-
=173
4bb-
4ee-
8aa-
8ff#
=174
4gg
4ee-
8ddd-
8bb-
=175
8ccc
8eee-
8ddd
8ccc
8bb-
8aa-
=176
8gg
8bb-
8eee-
8gg
8ddd
8ff
=177
8eee-
8ee-
8dd
8cc
8b-
8a-
=178
8g
8b-
8ee-
8g
8dd
8f
=179
8ee-
8e-
8d
8c
8B-
8A-
=180
8G
8B-
8e-
8G
8d
8F
=181
4e-
4r
4r
=182
2.g
=183
2.a-
=184
2.b-
=185
4e-
4ee-
4ee-
=186
4dd-
4ee-
4b-
=187
4cc
4ee-
4a-
=188
4dd
4ff
4b-
=189
8ee-
8b-
8g
8e-
8B-
8G
=190
2r
*>C
*k[b-e-a-d-g-c-]
*e-:
4B-
=192
12G-
12B-
12g-
12G-
12B-
12g-
12G-
12B-
12g-
=193
12G-
12B-
12g-
12F
12B-
12f
12G-
12B-
12g-
=194
12A-
12B-
12a-
12A-
12B-
12a-
12A-
12B-
12a-
=195
12A-
12B-
12a-
12A-
12B-
12a-
12A-
12B-
12a-
=196
12G-
12B-
12g-
12G-
12B-
12g-
12G-
12B-
12g-
=197
12G-
12B-
12g-
12F
12B-
12f
12G-
12B-
12g-
=198
12A-
12d-
12a-
12A-
12d-
12a-
12A-
12d-
12a-
=199
12A-
12d-
12a-
12A-
12d-
12a-
12A-
12d-
12a-
=200
12B-
12d-
12b-
12B-
12d-
12b-
12B-
12d-
12b-
=201
12B-
12d-
12b-
12B-
12d-
12b-
12B-
12d-
12b-
=202
12B-
12e-
12b-
12A-
12e-
12a-
12A-
12e-
12a-
=203
12A-
12e-
12a-
12G-
12A-
12g-
12G-
12A-
12g-
=204
12G-
12A-
12g-
12F
12A-
12f
12F
12A-
12f
=205
12F
12A-
12f
12G-
12A
12g-
12E-
12A
12e-
=206
4d
4f
4f
=207
4f
4r
*>C
4B-
=209
12G-
12B-
12g-
12G-
12B-
12g-
12G-
12B-
12g-
=210
12G-
12B-
12g-
12F
12B-
12f
12G-
12B-
12g-
=211
12A-
12B-
12a-
12A-
12B-
12a-
12A-
12B-
12a-
=212
12A-
12B-
12a-
12A-
12B-
12a-
12A-
12B-
12a-
=213
12G-
12B-
12g-
12G-
12B-
12g-
12G-
12B-
12g-
=214
12G-
12B-
12g-
12F
12B-
12f
12G-
12B-
12g-
=215
12A-
12d-
12a-
12A-
12d-
12a-
12A-
12d-
12a-
=216
12A-
12d-
12a-
12A-
12d-
12a-
12A-
12d-
12a-
=217
12B-
12d-
12b-
12B-
12d-
12b-
12B-
12d-
12b-
=218
12B-
12d-
12b-
12B-
12d-
12b-
12B-
12d-
12b-
=219
12B-
12e-
12b-
12A-
12e-
12a-
12A-
12e-
12a-
=220
12A-
12e-
12a-
12G-
12A-
12g-
12G-
12A-
12g-
=221
12G-
12A-
12g-
12F
12A-
12f
12F
12A-
12f
=222
12F
12A-
12f
12G-
12A
12g-
12E-
12A
12e-
=223
4d
4f
4f
=224
4f
4r
*>D
4f
=225
12d-
12f
12dd-
12d-
12f
12dd-
12d-
12f
12dd-
=226
12d-
12f
12dd-
12c
12f
12cc
12d-
12f
12dd-
=227
12e-
12f
12ee-
12e-
12f
12ee-
12e-
12f
12ee-
=228
12e-
12f
12ee-
12e-
12f
12ee-
12e-
12f
12ee-
=229
12d-
12f
12dd-
12d-
12f
12dd-
12d-
12f
12dd-
=230
12d-
12f
12dd-
12c
12f
12cc
12d-
12f
12dd-
=231
12d
12b-
12dd
12d
12b-
12dd
12d
12b-
12dd
=232
12d
12b-
12dd
12d
12b-
12dd
12d
12b-
12dd
=233
12e-
12b-
12ee-
12e-
12b-
12ee-
12f
12b-
12ff
=234
12g-
12b-
12gg-
12g-
12b-
12gg-
12a
12ee-
12aa
=235
12b-
12dd
12bb-
12a-
12cc-
12aa-
12g-
12b-
12gg-
=236
12f
12a-
12ff
12e-
12g-
12ee-
12d
12f
12dd
=237
12e-
12g-
12ee-
12G-
12B-
12g-
12G-
12B-
12g-
=238
12G-
12B-
12g-
12F
12B-
12f
12G-
12B-
12g-
=239
12A-
12B-
12a-
12A-
12B-
12a-
12A-
12B-
12a-
=240
12A-
12B-
12a-
12A-
12B-
12a-
12A-
12B-
12a-
=241
12G-
12B-
12g-
12G-
12B-
12g-
12G-
12B-
12g-
=242
12G-
12B-
12g-
12F
12B-
12f
12G-
12B-
12g-
=243
12A-
12e-
12a-
12A-
12e-
12a-
12A-
12e-
12a-
=244
12A-
12e-
12a-
12A-
12e-
12a-
12B-
12e-
12b-
=245
12c-
12e-
12cc-
8c-
8cc-
12c-
12e-
12cc-
=246
12d
12a-
12dd
12d
12a-
12dd
12d
12a-
12dd
=247
12e-
12g-
12ee-
12e-
12g-
12ee-
12f
12b-
12ff
=248
12g-
12b-
12gg-
12g-
12b-
12gg-
12a
12gg-
12aa
=249
12b-
12gg-
12bb-
12b-
12gg-
12bb-
12b-
12gg-
12bb-
=250
12dd
12aa-
12ddd
12dd
12aa-
12ddd
12dd
12aa-
12ddd
=251
4eee-
4r
4r
=252
4r
4g-
4f
=253
[2e-
4e-]
=254
2e-
4f
=255
[2.B-
=256
4B-]
4g-
4f
=257
[2e-
4e-]
=258
2e-
4f
=259
2.B-[
=260
2.B-]
=261
2.e-
=262
2.g
=263
*>A
*E-:
*k[b-e-a-]
2b-
4g
=264
4e-
2g
=265
4ee-
4gg
8ff
8dd
=266
8ee-
8gg
4b-
4r
=267
8cc
8ee-
4b-
4r
=268
8a-
8b-
4g
4r
=269
4f
4a-
4g
=270
4f
4r
4r
=271
2b-
4g
=272
4e-
2g
=273
4ee-
4gg
8ff
8dd
=274
4ee-
4r
4r
=275
4r
4ff
8ee-
8cc
=276
4dd
4r
4r
=277
4r
4r
8eee-
8ccc
=278
8ddd
8fff
4ff
8eee-
8ccc
=279
8ddd
8fff
4ff
8eee-
8ccc
=280
8ddd
8fff
4ff
8eee-
8ccc
=281
8ddd
8fff
8eee-
8ddd
8ccc
8bb-
=282
8aa
8bb-
8ddd
8ff
8ccc
8ee-
=283
8bb-
8ff
8ee-
8dd
8cc
8b-
=284
8a
8b-
8dd
8f
8cc
8e-
=285
8b-
8f
8d
8B-
8F
8D
=286
2.r
=287
*>B
2.r
=288
2b-
4g
=289
4e
4g
4b-
=290
2dd-
4b-
=291
4g
4b-
4dd-
=292
2ee
4dd-
=293
4b-
4dd-
4ee
=294
4gg
4ff
4ee
=295
4ee
4ff
4ff
=296
4aa-
4gg
4ff
=297
4r
4ee
4ee
=298
4gg
4ff
4ee
=299
4r
4ff
4ff
=300
4aa-
4gg
4ff
=301
4ee-
4dd
4dd
=302
4ff
4ee-
4dd
=303
4cc
4b-
4a
=304
4b-
4cc
4a-
=305
2b-
4g
=306
4e-
2g
=307
4ee-
4gg
8ff
8dd
=308
8ee-
8gg
4b-
4r
=309
8cc
8ee-
4b-
4r
=310
8a-
8b-
4g
4r
=311
4f
4a-
4g
=312
4f
4r
4r
=313
2b-
4g-
=314
4e-
2g-
=315
4ee-
4gg-
8ff
8dd
=316
4ee-
4r
4r
=317
4r
4r
8ff-
8dd-
=318
4ee-
4r
8ff-
8dd-
=319
4ee-
4r
8ff-
8dd-
=320
4ee-
[2gg-
=321
4gg-]
[2ff-
=322
4ff-]
[2ee-
=323
2.ee-]
=324
4ee-
[2gg-
=325
4gg-]
[2ff-
=326
4ff-]
[2ee-
=327
4ee-]
[2dd-
=328
4dd-]
[2cc-
=329
4cc-]
[2b-
=330
4b-]
4a
4r
=331
2.r
=332
4r
4b-
4b-
=333
4b-
4b-
8aa-
8ff
=334
4gg
4b-
8ff
8dd
=335
4ee-
4b-
8aa-
8ff
=336
4gg
4b-
8ff
8dd
=337
4ee-
4ee-
8ccc
8aa-
=338
4bb-
4ee-
8aa-
8ff#
=339
4gg
4ee-
8ccc
8aa-
=340
4bb-
4ee-
8aa-
8ff#
=341
4gg
4ee-
8ddd-
8bb-
=342
8ccc
8eee-
8ddd
8ccc
8bb-
8aa-
=343
8gg
8bb-
8eee-
8gg
8ddd
8ff
=344
8eee-
8ee-
8dd
8cc
8b-
8a-
=345
8g
8b-
8ee-
8g
8dd
8f
=346
8ee-
8e-
8d
8c
8B-
8A-
=347
8G
8B-
8e-
8G
8d
8F
=348
4e-
4r
4r
=349
2.g
=350
2.a-
=351
2.b-
=352
4e-
4ee-
4ee-
=353
4dd-
4ee-
4b-
=354
4cc
4ee-
4a-
=355
4dd
4ff
4b-
=356
8ee-
8b-
8g
8e-
8B-
8G
=357
2.r
==
*-
